X: 56
T: REELS: Galtee Rangers Set
T: Galtee Rangers
C: C: Trad.; S: Denis Murphy & Julia Clifford
C: Set Leaders: Anton, Sophie
Z: Anton Zille ed. arr.; Bregolas at The Session
N: https://thesession.org/members/26966/sets/63225
R: Reel
M: 4/4
L: 1/8
Q: 1/2=100
K: Dmaj
dB|"D"AFFE F2DE|"(G)"F2FE "A"FAdB|"D"AFFE F2DE|"G"FABA "A"FE E2|
"D"AF~F2 FEDE|"(G)"~F3E "A"FAdB|"D (Bm)"AF~F2 FEDE|"G"FAEG "A"FD E/F/G||
"D"A3B AGFG|"G"ABde "A"fee2|"D"fedc BcdB|"G"ABde "A"fd~d2|
"D"~A3B AF~F2|"G"ABde "A"fe~e2|"D (Bm)"fedc "G"BcdB|"A"A/B/c de fedB||
T: Glentaun / Glountane / Gleanntán
K: Gmaj
"G"DGBG AGBG|"G"DGBG "D"AE~E2|"G"DGBG AGAB|"C"d2ed "D"BG~G2|
"G"DGBG "(D)"AGBG|"G"DGBG "(D)"AE~E2|"G"DGBG "C"A2 A/B/c|"D"d2ed "(G)"BG~G2||
"G"Bd~d2 d2 ef|"C"g2fg "D"eA~A2|"G"Bd~d2 d2 gd|"C"Bd"D"Ac "G"BG~G2|
"G"Bd~d2 d2 ef|"C"g2fg "D"eA~A2|"C"B/c/d ef gage|"D"dBAc "G"BG"C"GE||
T: Callaghan's / Cal Callaghan's
K: Dmaj
"D"F2 AF "G"GE~E2|"D"FDDF "(A)"ABAG|"D"F2 AF "G"GE~E2|"A"FA"(G)"GE "(D)"DF"(A)"AG|
"D"F2~F2 "G"GEEG|"D"FDDF "A"ABAG|"D"EFAF "G"GE~E2|"A"AFGE "D"D2 A/B/c||
"D"d2 fd dcAB|"G"AG E/F/G "A"A2 Bc|"D"d2~d2 dcAB|"C"=cd"(A)"AB "G"~G2 FG|
"D"Ad~d2 dcAB|"G"AG E/F/G "A"ABcA|"D (Bm)"d2~d2 defd|"G"defd "A"dcAG||

